!!!!SEGMENT: pl-gd--ee-2628--005-006_stabile-annibale--il-primo-libro-de-madrigali-a-cinque-voci-s-altri-d-amor-sospira.krn
!!!cenid: 15xx:1051
!!!COM: Stabile, Annibale
!!!COM-rismID: pe30009662
!!!CDT: ~1535-1595/04
!!!CNT: Italian
!!!GTL: Il primo libro de madrigali a cinque voci
!!!OTL: S’altri d’amor sospira
!!!OMV: 006
!!!PDT: 1586
!!!AGN:
!!!YEC: Copyright 2022 Narodowy Instytut Fryderyka Chopina (https://polishscores.org)
!!!YEM: License CC-BY-4.0 (https://creativecommons.org/licenses/by/4.0)
!!!SMS-siglum: PL-GD
!!!SMS-shelfmark: Ee 2628
!!!SMS-variant:
!!!SMS-altvar:
!!!SMS-shelfwork: 005-006 G
!!!NIFC-rismSourceID: 1001203361
!!!NIFC-rismChildID: 990060531
!!!NIFC-islandoraID: pl-gd:66139
!!!URL-pdf-islandora: https://repozytorium.nifc.pl/islandora/object/pl-gd%3A66139/datastream/PDF/view
!!!URL-scan: https://polish.musicsources.pl/pl/lokalizacje/galeria/klocki-introligatorskie/673 @EN{Scan on Polish Music Sources Website} @PL{Skany w portalu Dziedzictwo Muzyki Polskiej w otwartym dostępie}
!!!IIIF:
!!!ONB-nifc: UWAGA: Canto: s. 78-89, Tenore: s. 233-245, Basso: s. 390-401, Quinto: s. 712-723. Dla głosu Alto proszę skorzystać z https://pbc.gda.pl/dlibra/doccontent?id=79410, str. 25-48. Uwaga: utwory podzielone wg spisu treści dostępnych na końcu ksiąg – proszę sprawdzać sąsiednie tytuły. Głos Quinto proszę umieszczać wg ambitusu (może się różnić w zależności od utworu).
!!!AIN: 1 alto 1 bass 2 soprn 1 tenor
!!!key: g:dor
**kern	**text	**kern	**text	**kern	**text	**kern	**text	**kern	**text
*part5	*	*part4	*	*part3	*	*part2	*	*part1	*
*staff5	*	*staff4	*	*staff3	*	*staff2	*	*staff1	*
*I"BASSO	*	*I"TENORE	*	*I"ALTO	*	*I"QVINTO	*	*I"CANTO	*
*I'B	*	*I'T	*	*I'A	*	*I'V 5	*	*I'S	*
*Ibass	*	*Itenor	*	*Ialto	*	*Isoprn	*	*Isoprn	*
*ICvox	*	*ICvox	*	*ICvox	*	*ICvox	*	*ICvox	*
*clefF3	*	*clefC3	*	*clefC2	*	*clefG2	*	*clefG2	*
*k[b-]	*	*k[b-]	*	*k[b-]	*	*k[b-]	*	*k[b-]	*
*g:dor	*	*g:dor	*	*g:dor	*	*g:dor	*	*g:dor	*
*M2/1	*	*M2/1	*	*M2/1	*	*M2/1	*	*M2/1	*
*met(C)	*	*met(C)	*	*met(C)	*	*met(C)	*	*met(C)	*
=1-	=1-	=1-	=1-	=1-	=1-	=1-	=1-	=1-	=1-
!LO:TX:t=P:problem=przy kluczu BB- B-	!	!LO:TX:b:i:t=S'Altri d'amor ſoſpira	!	!LO:TX:t=P:problem=przy kluczu B- b-	!	!LO:TX:b:i:t=S'Altri d'amor ſoſpira	!	!LO:TX:b:i:t=S'Altri d'amor ſoſpira	!
2r	.	0r	.	2.g\	S'Al-	0r	.	0r	.
2.G\	S'Al-	.	.	.	.	.	.	.	.
.	.	.	.	4g\	-tri	.	.	.	.
.	.	.	.	2d/	d'a-	.	.	.	.
4G\	-tri	.	.	.	.	.	.	.	.
2c\	d'a-	.	.	4e/	-mor	.	.	.	.
.	.	.	.	4g\	ſo-	.	.	.	.
=2-	=2-	=2-	=2-	=2-	=2-	=2-	=2-	=2-	=2-
4A\	-mor	1r	.	2f\	-ſpi-	1r	.	2r	.
4F/	ſo-	.	.	.	.	.	.	.	.
2c\	-ſpi-	.	.	2e/	-ra	.	.	4r	.
.	.	.	.	.	.	.	.	4g/	Io
2G\	-ra	4r	.	4r	.	4g/	Io	8g/	ri-
.	.	.	.	.	.	.	.	8a/	.
.	.	4G/	Io	4g\	Io	8g/	ri-	8b-\	.
.	.	.	.	.	.	8a/	.	8cc\	.
2r	.	8G/	ri-	4g\	ri-	8b-\	.	4.dd\	.
.	.	8A/	.	.	.	8cc\	.	.	.
.	.	8B-/	.	8f\	.	2dd\	.	.	.
.	.	8c/	.	8e\	.	.	.	16cc\	.
.	.	.	.	.	.	.	.	16b-\	.
=3-	=3-	=3-	=3-	=3-	=3-	=3-	=3-	=3-	=3-
1r	.	4d\	.	4f\	.	.	.	4a/	.
!	!	!	!	!LO:SIC:v:t=custos f	!	!	!	!	!
.	.	4e-X\	-do_e	4g\	-do_e	4cc\	-do_e	4g/	-do_e
!	!	!	!	!LO:LB:g=original	!	!	!	!LO:SIC:v:t=custos b	!
.	.	2d\	can-	2f#X\	can-	2dd\	can-	2a/	can-
!	!	!	!	!	!	!	!LO:LB:g=original	!	!
4r	.	4G/	-to	4g\	-to	1dd	-to	4b-/	-to
*	*	*	*ij	*	*	*	*	*	*
!	!	!LO:SIC:v:t=custos d	!	!	!	!	!	!	!
4D/	Io	4d\	Io	4fny\	io	.	.	4a/	io
!	!	!LO:LB:g=original	!	!	!	!	!	!	!
8D/	ri-	4.d\	ri-	2.f\	ri-	.	.	2.a/	ri-
8E/	.	.	.	.	.	.	.	.	.
8F\	.	.	.	.	.	.	.	.	.
!LO:SIC:v:t=custos A	!	!	!	!	!	!	!	!	!
8G\	.	16c\	.	.	.	.	.	.	.
.	.	16B-/	.	.	.	.	.	.	.
!LO:LB:g=original	!	!	!	!	!	!	!	!	!
=4-	=4-	=4-	=4-	=4-	=4-	=4-	=4-	=4-	=4-
4A\	.	4c\	.	.	.	1r	.	.	.
4B-\	-do_e	4d\	-do_e	4d/	-do_e	.	.	4g/	-do_e
2A\	can-	2c#X\	can-	2e/	can-	.	.	2a/	can-
1D	-to	2d\	-to	4f\	-to	4r	.	2a/	to
*	*	*	*Xij	*	*	*	*	*	*
!	!	!	!	!	!	!LO:SIC:v:t=custos dd	!	!	!
.	.	.	.	4f\	e	4dd\	io	.	.
*	*	*	*	*	*	*	*	*	*ij
!	!	!	!	!	!	!LO:LB:g=original	!	!	!
.	.	2d\	io	8f\	can-	8dd\	ri-	2a/	io
.	.	.	.	8g\	.	8ee\	.	.	.
.	.	.	.	8a\	.	8ff\	.	.	.
.	.	.	.	8f\	.	8dd\	.	.	.
=5-	=5-	=5-	=5-	=5-	=5-	=5-	=5-	=5-	=5-
1r	.	4cny/	ri-	8g\	.	4ee\	.	4cc\	ri-
.	.	.	.	8f\	.	.	.	.	.
.	.	4d\	-do_e	8f\	.	4dd\	do_e	4a/	-do_e
.	.	.	.	16e/	.	.	.	.	.
.	.	.	.	16d/	.	.	.	.	.
.	.	2A/	can-	2e/	.	2cc#X\	can-	2a/	can-
4r	.	1d	-to	4f\	-to	0dd	-to	4a/	-to
*	*	*	*	*	*	*	*	*	*Xij
!	!	!	!	!LO:SIC:v:t=custos b	!	!	!	!	!
4G\	io	.	.	4b-\	io	.	.	4g/	io
!	!	!	!	!LO:LB:g=original	!	!	!	!	!
8G\	ri-	.	.	2.b-\	ri-	.	.	4gg\	ri-
8A\	.	.	.	.	.	.	.	.	.
8B-\	.	.	.	.	.	.	.	8ff\	.
8c\	.	.	.	.	.	.	.	8ee\	.
=6-	=6-	=6-	=6-	=6-	=6-	=6-	=6-	=6-	=6-
4d\	.	1r	.	.	.	.	.	4ff\	.
4G\	do_e	.	.	4b-\	-do_e	.	.	4gg\	-do_e
2d\	can-	.	.	2a\	can-	.	.	2ff#X\	can-
!	!	!	!	!LO:N:acc=#	!	!	!	!	!
1G	-to	2r	.	2bn\	-to	2r	.	2gg\	-to
.	.	2g\	Tant'-	2b\	Tant'-	2gg\	Tant'-	2dd\	Tant'-
=7-	=7-	=7-	=7-	=7-	=7-	=7-	=7-	=7-	=7-
0r	.	2c/	-ho	2cc\	-ho	2gg\	-ho	2ee-X\	-ho
.	.	4d\	d'a-	4a\	d'a-	4ff\	d'a-	4dd\	d'a-
.	.	2f\	-mor	2a\	-mor	2ff\	-mor	2cc\	-mor
.	.	.	.	.	.	.	.	.	.
!	!	!	!	!	!	!	!	!LO:SIC:v:t=custos a	!
.	.	4g\	vag-	4g\	vag-	4dd\	vag-	4b-/	va-
!	!	!	!	!	!	!	!	!LO:LB:g=original	!
.	.	2d\	-hez-	2f#X\	-hez-	2dd\	-hez-	2a/	-ghez-
=8-	=8-	=8-	=8-	=8-	=8-	=8-	=8-	=8-	=8-
!	!	!LO:SIC:v:t=custos d	!	!	!	!	!	!	!
2r	.	2d\	-za	2f#\	-za	1dd	-za	2a/	-za
!	!	!LO:LB:g=original	!	!	!	!	!	!LO:N:acc=#	!
2G\	Tant'-	4r	.	2g\	Tant'-	.	.	2bn/	Tant'-
.	.	4d\	Tant'-	.	.	.	.	.	.
2C/	-ho	2e-X\	-ho	2g\	-ho	1r	.	2cc\	-ho
4D/	d'a-	4d\	d'a-	4fny\	d'a-	.	.	4b-y/	d'a-
2F/	-mor	2c/	-mor	2f\	-mor	.	.	2a/	-mor
=9-	=9-	=9-	=9-	=9-	=9-	=9-	=9-	=9-	=9-
.	.	.	.	.	.	2r	.	.	.
!LO:SIC:v:t=custos D	!	!	!	!	!	!	!	!	!
4G\	va-	4B-/	vag-	4d/	vag-	.	.	4g/	vag-
!LO:LB:g=original	!	!	!	!	!	!	!	!	!
2D/	-ghez-	2A/	-hez-	2d/	-hez-	2dd\	Per-	2f#X/	-hez-
!	!	!	!	!LO:SIC:v:t=custos g	!	!	!	!	!
2G\	-za	1G	-za	2d/	-za	1dd	-che	2g/	-za
!	!	!	!	!LO:LB:g=original	!	!	!	!	!
4r	.	.	.	2g\	Per-	.	.	2b-/	Per-
4G\	Per-	.	.	.	.	.	.	.	.
=10-	=10-	=10-	=10-	=10-	=10-	=10-	=10-	=10-	=10-
2D/	-che	4r	.	2f\	-che	4r	.	4a/	-che
*	*	*	*	*	*	*	*	*	*ij
!	!	!	!	!	!	!LO:SIC:v:t=custos b	!	!	!
.	.	4d\	Per-	.	.	4dd\	Per-	4a/	Per-
!	!	!	!	!	!	!LO:LB:g=original	!	!	!
4r	.	2G/	-che	2d/	Per-	4b-/	-che	2g/	-che
*	*	*	*	*	*	*	*	*	*Xij
4G\	Per-	.	.	.	.	4g/	quel-	.	.
4F/	-che	4r	.	2f\	-che	4a/	-la	2r	.
4D/	quel-	4d\	Per-	.	.	4b-/	bel-	.	.
4E-X/	-la	2G/	-che	2g\	quel-	2ccny\	-lez-	4r	.
4E-/	bel-	.	.	.	.	.	.	4gg\	Per-
=11-	=11-	=11-	=11-	=11-	=11-	=11-	=11-	=11-	=11-
8D/	-lez-	2d\	quel-	2.a\	-la	2dd\	-za	4ffny\	-che
8Eny/	.	.	.	.	.	.	.	.	.
8F\	.	.	.	.	.	.	.	4ff\	quel-
8G\	.	.	.	.	.	.	.	.	.
8A\	.	4c/	-la	.	.	2r	.	4eeny\	-la
8B-\	.	.	.	.	.	.	.	.	.
!	!	!	!	!	!	!	!	!LO:SIC:v:t=custos dd	!
8c\	.	4A/	bel-	4a\	bel-	.	.	4cc\	bel-
!LO:SIC:v:t=custos B	!	!	!	!	!	!	!	!	!
8A\	.	.	.	.	.	.	.	.	.
!LO:LB:g=original	!	!	!	!	!	!	!	!LO:LB:g=original	!
8B-\	.	2d\	-lez-	2f\	-lez-	2r	.	8dd\	-lez-
8c\	.	.	.	.	.	.	.	8ee\	.
4.d\	.	.	.	.	.	.	.	8ff\	.
.	.	.	.	.	.	.	.	8dd\	.
!	!	!LO:SIC:v:t=custos d	!	!	!	!	!	!	!
.	.	2A/	-za	2e/	-za	2.a/	Al-	2ee\	.
8c#X\	.	.	.	.	.	.	.	.	.
4c#\	.	.	.	.	.	.	.	.	.
!	!	!LO:LB:g=original	!	!	!	!	!	!	!
=12-	=12-	=12-	=12-	=12-	=12-	=12-	=12-	=12-	=12-
2d\	zi	2r	.	2.f\	Al-	.	.	2dd\	za
.	.	.	.	.	.	4a/	-la	.	.
2.D/	Al-	2.d\	Al-	.	.	2a/	qual	2.dd\	Al-
.	.	.	.	4f\	-la	.	.	.	.
.	.	.	.	2f\	qual	1.a	mi	.	.
4D/	-la	4d\	-la	.	.	.	.	4dd\	-la
2D/	qual	2d\	qual	1f\	mi	.	.	2dd\	qual
=13-	=13-	=13-	=13-	=13-	=13-	=13-	=13-	=13-	=13-
2F/	mi	2A/	mi	.	.	.	.	2cc\	mi
2F/	ſon	2c/	ſon	2f\	ſon	2a/	ſon	2cc\	ſon
1C	da-	2.c/	da-	1g	da-	1.cc	da-	1ee-X	da-
.	.	4c/	-to	.	.	.	.	.	.
=14-	=14-	=14-	=14-	=14-	=14-	=14-	=14-	=14-	=14-
1G	-to	2d\	tut-	1g	-to	.	.	2dd\	-to
.	.	2d\	-to	.	.	2b-/	-to	1dd\	tut-
*	*	*lig	*	*	*	*	*	*	*
1r	.	1e-X	quan-	1r	.	4g/	tut-	.	.
.	.	.	.	.	.	4g/	-to	.	.
.	.	.	.	.	.	2.gg\	quan-	2cc\	-to
=15-	=15-	=15-	=15-	=15-	=15-	=15-	=15-	=15-	=15-
2r	.	1d	.	1r	.	.	.	4b-/	quan-
.	.	.	.	.	.	8ff#X\	.	8a/	.
!	!	!	!	!	!	!LO:SIC:v:t=custos ff	!	!	!
.	.	.	.	.	.	8ee\	.	8g/	.
!	!	!	!	!	!	!LO:LB:g=original	!	!	!
4r	.	.	.	.	.	2ff#X\	.	2a/	.
4d\	Tro-	.	.	.	.	.	.	.	.
*	*	*Xlig	*	*	*	*	*	*	*
!	!	!	!	!	!	!	!	!LO:N:acc=#	!
4d\	-uo	1G	-to	2r	.	0gg	-to	2bn/	-to
4d\	be-	.	.	.	.	.	.	.	.
!LO:N:acc=#	!	!	!	!	!	!	!	!	!
4Bn\	-nig-	.	.	2d/	Tro-	.	.	2dd\	Tro-
!LO:SIC:v:t=custos c	!	!	!	!	!	!	!	!	!
4B\	-na	.	.	.	.	.	.	.	.
!LO:LB:g=original	!	!	!	!	!	!	!	!	!
=16-	=16-	=16-	=16-	=16-	=16-	=16-	=16-	=16-	=16-
!	!	!	!	!LO:SIC:v:t=custos g	!	!	!	!	!
1cny	tut-	4r	.	2e/	-uo	.	.	2.cc\	-uo
.	.	4g\	Tro-	.	.	.	.	.	.
!	!	!	!	!LO:LB:g=original	!	!	!	!	!
.	.	4eny\	-uo	2g\	be-	.	.	.	.
!	!	!	!	!	!	!	!	!LO:SIC:v:t=custos b	!
.	.	4e\	be-	.	.	.	.	4cc\	be-
!	!	!	!	!	!	!	!	!LO:LB:g=original	!
2G\	-to	4d\	-ni-	2g\	-ni-	2r	.	4b-/	-ni-
.	.	4d\	-gna	.	.	.	.	4dd\	-gna
!	!	!LO:SIC:v:t=custos d	!	!	!	!	!	!	!
2r	.	2e-X\	tan-	2g\	-gna	2gg\	Ch'ic	2cc\	tan-
!	!	!LO:LB:g=original	!	!	!	!	!	!	!
=17-	=17-	=17-	=17-	=17-	=17-	=17-	=17-	=17-	=17-
2r	.	1d	-to	1a	tan-	2gg\	di-	2dd\	-to
2D/	Ch'ic	.	.	.	.	2ff#X\	-co	1a/	Ch'ic
1B-y	di-	2r	.	1d	-to	2r	.	.	.
*	*	*	*	*	*	*	*ij	*	*
.	.	2d\	Ch'ic	.	.	1dd\	Ch'ic	2g/	di-
=18-	=18-	=18-	=18-	=18-	=18-	=18-	=18-	=18-	=18-
1A	-co	2f\	d[i]-	4r	.	.	.	1a	-co
.	.	.	.	4A/	Ch'ic	.	.	.	.
.	.	2eny\	-co	2a\	di-	2cc#X\	di-	.	.
2r	.	1d	o	2f#X\	-co	2dd\	-co	2r	.
*	*	*	*	*	*	*	*Xij	*	*
2D/	o	.	.	2f#\	o	2a/	o	2dd\	o
=19-	=19-	=19-	=19-	=19-	=19-	=19-	=19-	=19-	=19-
!	!	!	!	!	!	!LO:N:acc=#	!	!	!
2G\	dol-	2d\	dol-	2g\	dol-	2bn/	dol-	2dd\	dol-
2G\	-ce	2d\	-ce_a-	2g\	-ce_a-	2b/	-ce_a-	2dd\	-ce_a-
1C	amo-	1c	-mo-	1g	-mo-	1ccny	-mo-	1ee-X	-mo-
=20-	=20-	=20-	=20-	=20-	=20-	=20-	=20-	=20-	=20-
1G	-re	1d	-re	1g	-re	4b-y/	-re	4dd\	-re
.	.	.	.	.	.	4.b-/	Ar-	4.dd\	Ar-
.	.	.	.	.	.	8b-/	-di-	8dd\	-di-
!	!	!	!	!	!	!LO:SIC:v:t=custos a	!	!	!
.	.	.	.	.	.	4b-/	-mi	4dd\	-mi
!	!	!	!	!	!	!LO:LB:g=original	!	!	!
1r	.	1r	.	1r	.	4a/	ſem-	4cc\	ſem-
.	.	.	.	.	.	4g/	-pre_il	4b-/	-pre_il
!	!	!	!	!	!	!	!	!LO:SIC:v:t=custos g	!
.	.	.	.	.	.	2f#X/	co-	2a/	co-
!	!	!	!	!	!	!	!	!LO:LB:g=original	!
=21-	=21-	=21-	=21-	=21-	=21-	=21-	=21-	=21-	=21-
0r	.	0r	.	4r	.	4g/	-re	4g/	-re
*	*	*	*	*	*	*	*ij	*	*ij
.	.	.	.	4.g\	Ar-	4.dd\	Ar-	4.b-/	Ar-
.	.	.	.	8g\	-di-	8dd\	-di-	8b-/	-di-
.	.	.	.	4d/	mi	4dd\	-mi	4b-/	-mi
.	.	.	.	4fny\	ſem-	4cc\	ſem-	4a/	ſem-
!	!	!	!	!LO:SIC:v:t=custos d	!	!	!	!	!
.	.	.	.	4g\	-pre_il	4b-\	-per_il	4g/	-pre_il
!	!	!	!	!LO:LB:g=original	!	!	!	!	!
.	.	.	.	2d/	co-	2a/	co-	2f#X/	co-
=22-	=22-	=22-	=22-	=22-	=22-	=22-	=22-	=22-	=22-
4r	.	4r	.	4G/	-re	4g/	-re	4g/	-re
*	*	*	*	*	*ij	*	*Xij	*	*Xij
4.G\	Ar-	4.d\	Ar-	4.B-/	Ar-	4.g/	A-	4.dd\	Ar-
8G\	-di-	8d\	-di-	8G/	-di-	8b-/	-di-	8dd\	-di-
4F#X/	-mi	4d\	-mi	4A/	-mi	4a/	-mi	4dd\	-mi
4G\	ſem-	4B-/	ſem-	4d/	ſem-	4g/	ſem-	4dd\	ſem-
4E/	-pre_il	4G/	-pre_il	4c/	-pre_il	4g/	-per_il	4g/	-pre_il
!LO:SIC:v:t=custos G	!	!	!	!	!	!	!	!	!
2D/	co-	2A/	co-	2d/	co-	2f#X/	co-	2dd\	co-
!LO:LB:g=original	!	!	!	!	!	!	!	!	!
=23-	=23-	=23-	=23-	=23-	=23-	=23-	=23-	=23-	=23-
!	!	!	!	!	!	!LO:SIC:v:t=custos g	!	!LO:N:acc=#	!
1G	-re	1G	-re	1d	-re	1g	-re	2bn/	-re
*	*	*	*	*	*Xij	*	*	*	*
.	.	.	.	.	.	.	.	2dd\	Che_in-
!	!	!	!	!	!	!LO:LB:g=original	!	!	!
1r	.	1r	.	1r	.	2g/	Che_in-	2ee-X\	-nan-
.	.	.	.	.	.	2b-/	-nan-	4dd\	-zi
.	.	.	.	.	.	.	.	4.dd\	ch'io
=24-	=24-	=24-	=24-	=24-	=24-	=24-	=24-	=24-	=24-
!	!	!LO:SIC:v:t=custos e	!	!	!	!	!	!	!
1r	.	2d\	Che_in-	2r	.	4a/	-zi	.	.
.	.	.	.	.	.	.	.	8cc\	.
.	.	.	.	.	.	2dd\	ch'io	8b-y/	.
!	!	!	!	!	!	!	!	!LO:SIC:v:t=custos g	!
.	.	.	.	.	.	.	.	8a/	.
!	!	!LO:LB:g=original	!	!	!	!	!	!LO:LB:g=original	!
.	.	2e-X\	-nan-	4r	.	.	.	2.g/	.
.	.	.	.	4g\	Che_in-	4cc\	di	.	.
2r	.	2d\	-zi	4b-y\	-nan-	2dd\	te	.	.
.	.	.	.	4a\	-zi	.	.	4f#X/	di
2G\	Che_in-	4r	.	2.b-\	ch'io	2dd\	tro-	2g/	te
.	.	4g\	Che_in-	.	.	.	.	.	.
=25-	=25-	=25-	=25-	=25-	=25-	=25-	=25-	=25-	=25-
2B-\	-nan-	4f\	-nan-	.	.	4dd\	-ui	1r	.
.	.	4d\	-zi	8a\	.	4dd\	per-	.	.
.	.	.	.	8g\	.	.	.	.	.
4A\	-zi	4eny\	ch'io	4a\	.	8cc\	.	.	.
.	.	.	.	.	.	8b-\	.	.	.
2d\	ch'io	4f\	di	4a\	di	8a/	.	.	.
.	.	.	.	.	.	8g/	.	.	.
.	.	2e\	te	2A/	te	2a/	.	4r	.
4c#X\	di	.	.	.	.	.	.	4eeny\	Che_in-
!	!	!	!	!LO:SIC:v:t=custos a	!	!	!	!	!
2d\	te	4r	.	2r	.	4a/	-uo	4ff#X\	-nan-
.	.	4d\	Che_in-	.	.	4a/	Che_in-	4ff#\	-zi
!	!	!	!	!LO:LB:g=original	!	!	!	!	!
=26-	=26-	=26-	=26-	=26-	=26-	=26-	=26-	=26-	=26-
4r	.	1G	-nan-	1r	.	1b-	-nan-	1.gg	ch'io
4d\	Che_in-	.	.	.	.	.	.	.	.
2d\	-nan-	.	.	.	.	.	.	.	.
1D	-zi	1d	-zi	2r	.	2a/	-zi	.	.
.	.	.	.	2a\	Che_in-	1dd\	ch'io	2ffny\	di
=27-	=27-	=27-	=27-	=27-	=27-	=27-	=27-	=27-	=27-
00r	.	2.A/	ch'io	2a\	-nan-	.	.	2ee\	te
!	!	!	!	!	!	!LO:SIC:v:t=custos cc	!	!	!
.	.	.	.	2a\	-zi	2cc\	di	1ff\	mi
.	.	4A/	di	.	.	.	.	.	.
!	!	!	!	!	!	!LO:LB:g=original	!	!	!
.	.	1c	te	2.g\	ch'io	2.cc\	te	.	.
.	.	.	.	.	.	.	.	2ee\	tro-
.	.	.	.	4g\	di	4cc\	mi	.	.
=28-	=28-	=28-	=28-	=28-	=28-	=28-	=28-	=28-	=28-
!	!	!LO:N:acc=#	!	!	!	!	!	!	!
.	.	2Bn/	mi	2g\	te	2dd\	tro-	2dd\	-ui
.	.	2c/	tro-	2g\	mi	2ee-X\	-ui	2.cc\	pri-
!	!	!LO:SIC:v:t=custos g	!	!	!	!	!	!	!
.	.	2G/	-ui	2g\	tro-	1dd	pri-	.	.
.	.	.	.	.	.	.	.	4b-/	.
!	!	!LO:LB:g=original	!	!	!	!	!	!	!
.	.	2.g\	pri-	2G/	-ui	.	.	4b-/	.
.	.	.	.	.	.	.	.	8a/	.
.	.	.	.	.	.	.	.	8g/	.
=29-	=29-	=29-	=29-	=29-	=29-	=29-	=29-	=29-	=29-
1D	Piu	.	.	1d	pri-	1dd	-uo	1a	.
.	.	8f#X\	.	.	.	.	.	.	.
.	.	8e\	.	.	.	.	.	.	.
.	.	2f#X\	.	.	.	.	.	.	.
!	!	!	!	!	!	!	!	!LO:SIC:v:t=custos b	!
0G	pre-	2g\	-uo	2d/	-uo	2r	.	2b-/	-uo
!	!	!	!	!	!	!	!	!LO:LB:g=original	!
.	.	2G/	Piu	2d/	Piu	1dd\	Piu	2b-/	piu
=30-	=30-	=30-	=30-	=30-	=30-	=30-	=30-	=30-	=30-
.	.	1B-y	pre-	1d	pre-	.	.	1g	pre-
.	.	.	.	.	.	1gg\	pre-	.	.
1D	-ſto	2A/	-ſto	2d/	-ſto	.	.	2dd\	-ſto
.	.	4r	.	4r	.	2ff#X\	ſto_e-	4r	.
.	.	4d\	e-	4a\	e-	.	.	4dd\	e-
=31-	=31-	=31-	=31-	=31-	=31-	=31-	=31-	=31-	=31-
1r	.	4.g\	-leg-	4.b-\	-leg-	4.gg\	-leg-	4.dd\	-leg-
!	!	!	!	!LO:SIC:v:t=custos b	!	!	!	!	!
.	.	8g\	-ge-	8b-\	-ge-	8gg\	-ge-	8dd\	-ge-
!	!	!	!	!LO:LB:g=original	!	!	!	!	!
.	.	4g\	-rei	4b-\	-rei	4gg\	-rei	4dd\	-rei
.	.	4d\	non	4a\	non	4ffny\	non	4dd\	non
2r	.	4e-X\	eſ-	4g\	eſ-	4ee-X\	eſ-	4b-/	eſ-
.	.	4c/	-ſer	4g\	-ſer	4ee-\	-ſer	4cc\	-ſer
2D/	e-	2d\	vi-	2f#X\	vi-	2dd\	vi-	2a/	vi-
=32-	=32-	=32-	=32-	=32-	=32-	=32-	=32-	=32-	=32-
!	!	!	!	!	!	!	!	!LO:N:acc=#	!
4.G\	-leg-	4d\	-uo	4g\	-uo	4dd\	-uo	4bn/	-uo
!	!	!	!	!	!	!LO:SIC:v:t=custos cc	!	!	!
!	!	!LO:SIC:v:t=custos G	!	!	!	!LO:N:acc=#	!	!	!
.	.	4G/	e-	4g\	e-	4bn\	e-	4dd\	e-
!LO:SIC:v:t=custos C	!	!	!	!	!	!	!	!	!
8G\	-ge-	.	.	.	.	.	.	.	.
!LO:LB:g=original	!	!LO:LB:g=original	!	!	!	!LO:LB:g=original	!	!	!
4C/	-rei	4.G/	-leg-	4.g\	-leg-	4.cc\	-leg-	4.ee\	-leg-
4C/	non	.	.	.	.	.	.	.	.
.	.	8G/	-ger-	8g\	-ge-	8cc\	-ge-	8ee\	-ge-
2Fny/	eſ-	2A/	-rei	2fny\	-rei	4cc\	-rei	2ff\	-rei
.	.	.	.	.	.	4cc\	non	.	.
2F/	-ſer	2A/	non	2c/	non	2.a/	eſ-	2ff\	non
=33-	=33-	=33-	=33-	=33-	=33-	=33-	=33-	=33-	=33-
2.BB-/	vi-	2B-/	eſ-	2d/	eſ-	.	.	2dd\	eſ-
.	.	.	.	.	.	4g/	-ſer	.	.
.	.	2B-/	-ſer	2d/	-ſer	2.g/	vi-	2dd\	-ſer
4C/	.	.	.	.	.	.	.	.	.
1D	.	1A	vi-	1d	vi-	.	.	1dd	vi-
.	.	.	.	.	.	8f#X/	.	.	.
.	.	.	.	.	.	8e/	.	.	.
.	.	.	.	.	.	2f#X/	.	.	.
=34-	=34-	=34-	=34-	=34-	=34-	=34-	=34-	=34-	=34-
!	!	!	!	!	!	!	!	!LO:N:acc=#	!
0Gl	-uo.	0Gl	-uo.	0dl	-uo.	0gl	-uo.	0bnl	-uo.
==	==	==	==	==	==	==	==	==	==
*-	*-	*-	*-	*-	*-	*-	*-	*-	*-
!!!system-decoration: [(*)]
!!!RDF**kern: l = terminal long
!!!ENC: Marta Opryszak
!!!END: 2022-07-08
!!!ENC: Andrzej Kubiczek
!!!END: 2022-07-31
